X: 11352
Q: "Slow."
M: 3/4
L: 1/8
K: Bb
(B2 A)B cd | (cd/e/) d2 f>B | A3 B AG | F2 z2 FB |\
(B2 A)B cd | (cd/e/) d2 f>B | G<e d2 c>B | B2 z2
c2 f2 d>B | c>A F2 AB | cd A2 G2 | F4 (D/F/)B |\
(B2 A)B cd | (cd/e/) d2 f>B | Ge d2 c>B | B2 z2 |]


